/* XPM */
static const char *finns_realm_32x32[] = {
/* columns rows colors chars-per-pixel */
"32 32 2 1 ",
"  c #0B0E0C",
". c #3DFF9A",
/* pixels */
"                                ",
" .............................. ",
" .                            . ",
" .                            . ",
" .                            . ",
" .                            . ",
" .             ...            . ",
" .          .. ... ..         . ",
" .         ... .......        . ",
" .        . ..... .....       . ",
" .       ... .     ....       . ",
" .       ....       ...       . ",
" .       ..           ..      . ",
" .      ....        ....      . ",
" .      .. .        ....      . ",
" .                     .      . ",
" .      ....        ....      . ",
" .      ....        ....      . ",
" .         .                  . ",
" .      ....        ....      . ",
" .      ....        ....      . ",
" .                            . ",
" .     ......       ......    . ",
" .     ......        ....     . ",
" .                            . ",
" .                            . ",
" .                            . ",
" .                            . ",
" .                            . ",
" .                            . ",
" .............................. ",
"                                "
};
