/* XPM */
static const char *finns_realm_48x48[] = {
/* columns rows colors chars-per-pixel */
"48 48 2 1 ",
"  c #0B0E0C",
". c #3DFF9A",
/* pixels */
"                                                ",
"   ..........................................   ",
"  ..                                        ..  ",
" ..                                          .. ",
" .                                            . ",
" .                                            . ",
" .                                            . ",
" .                                            . ",
" .                                            . ",
" .                    .....                   . ",
" .                    ......                  . ",
" .                ... ..... ...               . ",
" .               .......... ....              . ",
" .              ........... .... .            . ",
" .             .. .... ... .... ..            . ",
" .             ... ... ...  ......            . ",
" .            ..... .       .......           . ",
" .            ......          .....           . ",
" .               ..            ..             . ",
" .           ....                ...          . ",
" .           ......            ......         . ",
" .           ... ..            .. ...         . ",
" .           .. ...            ......         . ",
" .           .                     .          . ",
" .            ....             .... .         . ",
" .           ......            ......         . ",
" .           ......            .. ...         . ",
" .           ... ..            .. ...         . ",
" .           ....               ....          . ",
" .           ......            ......         . ",
" .           ......            ......         . ",
" .           .. ...            ......         . ",
" .                                            . ",
" .          . .... .          . ....          . ",
" .         .........         .........        . ",
" .         .........         .........        . ",
" .                                            . ",
" .                                            . ",
" .                                            . ",
" .                                            . ",
" .                                            . ",
" .                                            . ",
" .                                            . ",
" .                                            . ",
" ..                                          .. ",
"  ..                                        ..  ",
"   ..........................................   ",
"                                                "
};
